X:1
T: Skallpiplåten - Vals från Transtrand
R: Vals
S: Perjos Lars Halvarsson|utlärd av Perjos Lars Halvarsson
Z: Karin Arén
M: 3/4
L: 1/8
K: Dm
|: A2 d2 de | d2 c=B c2 | F2 F2 G2 |1 Az z4 :|2 Az z2 A2 |: 
F2 F2 GA | =B2 AG A2 | F2 F2 GA | =B2 AG A2 | F2 E2 D^C |1 Dz z2 A2 :|2 Dz z2 z4 |]

